X: 4835
T: Boys On The Hilltop, The
R: reel
M: 4/4
K: Adorian
A3c ~B2AG|EG~G2 G2AG|EAAc BGBd|egdg BGdB|
A3c ~B2AG|EG~G2 G2AB|c3A ~B2Bc|dBGA BAAG||
A2Bd egdB|GAB^c defg|aged egdB|GBdB BAA2|
AGed egdB|GAB^c defg|a2ge fdef|g2af gedB||

